X:1
T:Ascendit Deus
T:Ferdinand Schaller (1875-1921)
T:Ascendit Deus
T:Copyright © 2015 by CPDL.  This edition can be fully distributed, duplicated, performed, and recorded.
T:Copyright © 2015 by CPDL.  This edition can be fully distributed, duplicated, performed, and recorded.
T:Copyright © 2015 by CPDL.  This edition can be fully distributed, duplicated, performed, and recorded.
T:Copyright © 2015 by CPDL.  This edition can be fully distributed, duplicated, performed, and recorded.
T:Copyright © 2015 by CPDL.  This edition can be fully distributed, duplicated, performed, and recorded.
C:Ferdinand Schaller (1875-1921)
Z:Alleluia verse for Corpus Christi
Z:Copyright © 2015 by CPDL.  This edition can be fully distributed, duplicated, performed, and recorded.
%%score [ 1 2 3 4 ]
L:1/8
Q:1/4=120
M:2/2
K:C
V:1 treble nm="Soprano" snm="S."
V:2 treble nm="Alto" snm="A."
V:3 treble-8 transpose=-12 nm="Tenor" snm="T."
V:4 bass nm="Bass" snm="B."
V:1
!mf! (C4 E2 F2) |!<(! G4 (A2!<)! B2) |!>(! c8!>)! | c8 | c8 |!<(! B4 (A2!<)! G2) | %6
w: A- * *|scen- dit *|De-|us,|a-|scen- dit _|
!>(! (G4!>)! A4) | G6!f! G2 | A2 G2 A2 F2 | G4 G2 c2 |!<(! c2 c2 f2!<)! e2 |!>(! d8!>)! | %12
w: De- *|us, in|ju- bi- la- ti-|o- ne, in|ju- bi- la- ti-|o-|
 B6!mf! z2 | G8 |!<(! G6!<)! G2 |!>(! (A4!>)! G4) | G8 | (G4 A2 B2) |!<(! c4 (d2!<)! e2) | %19
w: ne:|A-|scen- dit|De- *|us,|a- * *|scen- dit _|
!>(! f8!>)! | e6!f! c2 | B2 c2 f2 e2 | e4 d2 c2 |!<(! c2 c2 f2!<)! e2 |!>(! d8!>)! | e8 || %26
w: De-|us in|ju- bi- la- ti-|o- ne, in|ju- bi- la- ti-|o-|ne:|
 z4!p! E4 | !^!E6 E2 | E8- | E8- | E8- | E8- | E4!p! E4 | A2 B2 !>!^c4 | B4!f! E4 | !^!^c6 c2 | %36
w: et|Do- mi-|nus|_|||* in|vo- ce tu-|bæ, et|Do- mi-|
 ^c4 A4 | !^!A6 A2 | A8- | A8- | A4 A4 | ^F2 A2 !>!d4 | ^c4!ff! A4 | !^!A6 d2 | d4 A4 | B8- | %46
w: nus, et|Do- mi-|nus|_|* in|vo- ce tu-|bæ. et|Do- mi-|nus, et|Do-|
 c4 c4 | B4!f! G4 | c2 d2 !>!e4 | d4 B4 | c2 B2 !>!c4 | B4 c4 |!ff! f4 e4 | d8 | c8 || %55
w: * mi-|nus in|vo- ce tu-|bæ, in|vo- ce tu-|bæ, in|vo- ce|tu-|bæ.|
!mf! (C4 E2 F2) |!<(! (G4 A2!<)! B2) |!>(! c8-!>)! | c4 C4 | G8 | G8 | (A4 G4) | G4!ff! c4- | %63
w: Al- * *|le- * *|lu-|* ia,|al-|le-|lu- *|ia, al-|
 c2 c2 !^!c4 | c4 z2 (e2 | f2) e2 !^!f4 |"^rit." e4 c4- | c4 c4 | (c4 B4) | !fermata!c8 |] %70
w: * le- lu-|ia, al-|* le- lu-|ia, al-|* le-|lu- *|ia.|
V:2
!mf! (C4 E2 F2) |!<(! G4!<)! F4 |!>(! (E4!>)! F4) | E8 | (E4 C2 A,2) |!<(! D6!<)! D2 | %6
w: A- * *|scen- dit|De- *|us,|a- * *|scen- dit|
!>(! (G4 F2!>)! E2) | D6!f! E2 | F2 E2 F2 C2 | D4 E2 C2 |!<(! F2 G2 G2!<)! G2 |!>(! (G4!>)! ^F4) | %12
w: De- * *|us, in|ju- bi- la- ti-|o- ne, in|ju- bi- la- ti-|o- *|
 G6!mf! z2 | (D4 =F4) |!<(! (E2 G2 F2)!<)! E2 |!>(! (D4!>)! E4) | D8 | D8 |!<(! (E2 G2 F2)!<)! E2 | %19
w: ne:|A- *|scen- * * dit|De- *|us,|a-|scen- * * dit|
!>(! (A4!>)! G4) | G6!f! G2 | G2 G2 G2 G2 | G4 G2 E2 |!<(! F2 G2 F2!<)! G2 |!>(! A8!>)! | ^G8 || %26
w: De- *|us in|ju- bi- la- ti-|o- ne, in|ju- bi- la- ti-|o-|ne:|
 z4!p! E4 | !^!E6 E2 | E4!<(! B,4!<)! |!>(! !^!^C6!>)! C2 | B,4 z4 | z8 | z4!p! E4 | ^C2 E2 !>!A4 | %34
w: et|Do- mi-|nus, et|Do- mi-|nus||in|vo- ce tu-|
 E4!f! E4 | !^!E6 E2 | E4 E4 | !^!^F6 F2 | E4 A,4 | D2 E2 ^F4 | E4 E4 | D2 E2 ^F4 | E4!ff! E4 | %43
w: bæ, et|Do- mi-|nus, et|Do- mi-|nus in|vo- ce tu-|bæ, in|vo- ce tu-|bæ. et|
 !^!^F6 F2 | ^F4 F4 | G8- | G4 E4 | D4!f! G4 | E2 G2 !>!c4 | G4 G4 | G2 G2 G4 | G4 G4 |!ff! G6 G2 | %53
w: Do- mi-|nus, et|Do-|* mi-|nus in|vo- ce tu-|bæ, in|vo- ce tu-|bæ, in|vo- ce|
 (G6 F2) | E8 ||!mf! C8 |!<(! D8!<)! |!>(! (C4!>)! D4 | E4) C4 | (D4 F4) | (E2 G2 F2 E2) | %61
w: tu- *|bæ.|Al-|le-|lu- *|* ia,|al- *|le- * * *|
 (D6 F2) | E4!ff! (C4 | F2) E2 !^!F4 | E4 z2 (G2 | A2) G2 !^!A4 | G4 (E4 | D4) A4 | (G6 F2) | %69
w: lu- *|ia, al-|* le- lu-|ia, al-|* le- lu-|ia, al-|* le-|lu- *|
 !fermata!E8 |] %70
w: ia.|
V:3
!mf! (C4 c4) |!<(! d6!<)! d2 |!>(! (c4!>)! A4) | G8 | (c4 E2 F2) |!<(! G4 (A2!<)! B2) | %6
w: A- *|scen- dit|De- *|us,|a- * *|scen- dit _|
!>(! c8!>)! | B6!f! c2 | c2 c2 c2 c2 | (c2 B2) c2 G2 |!<(! A2 G2 B2!<)! c2 |!>(! A8!>)! | %12
w: De-|us, in|ju- bi- la- ti-|o- * ne, in|ju- bi- la- ti-|o-|
 G6!mf! z2 | (B4 d4) |!<(! (c2 e2 d2)!<)! c2 |!>(! c8!>)! | B8 | (B4 A2 G2) | %18
w: ne:|A- *|scen- * * dit|De-|us,|a- * *|
!<(! (G2 c2 B2)!<)! c2 |!>(! (c4!>)! B4) | c6!f! c2 | d2 c2 B2 c2 | c4 B2 c2 | %23
w: scen- * * dit|De- *|us in|ju- bi- la- ti-|o- ne, in|
!<(! A2 G2 c2!<)! B2 |!>(! A8!>)! | B8 || z4!p! E4 | !^!E6 E2 | E4!<(! ^G4!<)! |!>(! !^!A6!>)! A2 | %30
w: ju- bi- la- ti-|o-|ne:|et|Do- mi-|nus, et|Do- mi-|
 ^G4!p! E4 | A2 B2 !>!^c4 | B8 | z8 | z4!f! E4 | !^!A6 A2 | A4 ^c4 | !^!d6 d2 | ^c4 A4 | %39
w: nus in|vo- ce tu-|bæ,||et|Do- mi-|nus, et|Do- mi-|nus in|
 ^F2 A2 !>!d4 | A8- | A8- | A4!ff! ^c4 | !^!d6 A2 | A4 d4 | (d8 | c4) G4 | G8- | G8- | G4!f! G4 | %50
w: vo- ce tu-|bæ.|_|* et|Do- mi-|nus, et|Do-|* mi-|nus|_|* in|
 c2 d2 !>!e4 | d4 c4 |!ff! B4 c4 | (c4 B4) | c8 ||!mf! (E4 A4) |!<(! (B4 A2!<)! G2) | %57
w: vo- ce tu-|bæ, in|vo- ce|tu- *|bæ.|Al- *|le- * *|
!>(! (G4!>)! A4 | G4) c4 | (B4 d4) | (c2 e2 d2 c2) | (c4 B4) | c4 z2!ff! (G2 | A2) G2 !^!A4 | %64
w: lu- *|* ia,|al- *|le- * * *|lu- *|ia, al-|* le- lu-|
 G4 c4- | c2 c2 !^!c4 | c4 (G4 | A4) d4 | d8 | !fermata!c8 |] %70
w: ia, al-|* le- lu-|ia, al-|* le-|lu-|ia.|
V:4
!mf! (C,4 C4) |!<(! B,4!<)! G,4 |!>(! (A,4!>)! F,4) | C,8 | A,,8 |!<(! G,,4!<)! F,4 | %6
w: A- *|scen- dit|De- *|us,|a-|scen- dit|
!>(! (E,4!>)! F,4) | G,6!f! C,2 | F,2 C,2 F,2 A,2 | G,4 C,2 E,2 |!<(! F,2 E,2 D,2!<)! C,2 | %11
w: De- *|us, in|ju- bi- la- ti-|o- ne, in|ju- bi- la- ti-|
!>(! D,8!>)! | G,6 z2 |!mf! (G,,4 A,,2 B,,2) |!<(! C,4 (D,2!<)! E,2) |!>(! (F,4!>)! E,4) | G,8 | %17
w: o-|ne:|A- * *|scen- dit _|De- *|us,|
 F,8 |!<(! E,4 (D,2!<)! C,2) |!>(! (D,4!>)! G,4) | C,6!f! E,2 | F,2 E,2 D,2 C,2 | G,4 G,2 A,2 | %23
w: a-|scen- dit _|De- *|us in|ju- bi- la- ti-|o- ne, in|
!<(! F,2 E,2 A,2!<)! G,2 |!>(! F,8!>)! | E,8 || z4!p! E,4 | !^!E,6 E,2 | E,4!<(! E,4!<)! | %29
w: ju- bi- la- ti-|o-|ne:|et|Do- mi-|nus, et|
!>(! !^!A,,6!>)! A,,2 | E,4!p! E,4 | ^C,2 E,2 !>!A,4 | E,8- | E,8- | E,4!f! E,4 | !^!A,,6 A,,2 | %36
w: Do- mi-|nus in|vo- ce tu-|bæ,|_|* et|Do- mi-|
 A,,4 A,4 | !^!D,6 D,2 | A,,8- | A,,8- | A,,4 ^C,4 | D,2 ^C,2 !>!D,4 | A,,4!ff! A,4 | !^!D,6 D,2 | %44
w: nus, et|Do- mi-|nus|_|* in|vo- ce tu-|bæ. et|Do- mi-|
 D,4 D,4 | (G,4 =F,4 | E,4) C,4 | G,8- | G,8- | G,4!f! G,4 | E,2 G,2 !>!C4 | G,4 E,4 | %52
w: nus, et|Do- *|* mi-|nus|_|* in|vo- ce tu-|bæ, in|
!ff! D,4 (E,2 F,2) | G,8 | C,8 ||!mf! (A,,4 A,4) |!<(! (G,4!<)! F,4) |!>(! (E,4!>)! F,4) | C,8 | %59
w: vo- ce _|tu-|bae.|Al- *|le- *|lu- *|ia,|
 (G,,4 A,,2 B,,2) | (C,4 D,2 E,2) | (F,4 G,4) | C,4 z2!ff! (E,2 | F,2) C,2 !^!F,4 | C,4 (C4 | %65
w: al- * *|le- * *|lu- *|ia, al-|* le- lu-|ia, al-|
 A,2) C2 !^!F,4 | C,4 (E,4 | F,4) ^F,4 | G,8 | !fermata!C,8 |] %70
w: * le- lu|ia, al-|* le-|lu-|ia.|

